X:1
T:Caddam Woods (B music)
C:Adam Rennie / Jim Cameron
N:Corrupt version
H:was Anon019
S:John Macfarlane, March 2004
O:September 2001
M:4/4
L:1/4
R:Reel
Q:1/2=125
K:G
d2 B2 | d d B2 | d2 e>B | d ^c =c2 | c2 A2 | c c A2 | f>e f>e | e d ^c d |]
